svgs/logo.svg

<svg width="184px" height="20px" viewBox="0 0 184 20" version="1.1" xmlns="http://www.w3.org/2000/svg" xmlns:xlink="http://www.w3.org/1999/xlink">
            <path d="M10.5349822,4.38826066 C11.4693109,4.38826066 11.9623565,3.89521504 11.9623565,2.9605972 L11.9623565,1.92216506 C11.9623565,0.987836395 11.4693109,0.494501606 10.5349822,0.494501606 L2.0204749,0.494501606 C1.08585705,0.494501606 0.592811441,0.987836395 0.592811441,1.92216506 L0.592811441,17.6273306 C0.592811441,18.5619484 1.08585705,19.0549941 2.0204749,19.0549941 L3.70781868,19.0549941 C4.64214735,19.0549941 5.13548214,18.5619484 5.13548214,17.6273306 L5.13548214,12.1757788 L9.36642077,12.1757788 C10.3010386,12.1757788 10.7943734,11.6827331 10.7943734,10.7481153 L10.7943734,9.70997234 C10.7943734,8.77564367 10.3010386,8.2820197 9.36642077,8.2820197 L5.13548214,8.2820197 L5.13548214,4.38826066 L10.5349822,4.38826066" id="Fill-1"></path>
            <path d="M17.7513771,9.6579206 C17.7513771,15.1091833 21.6968987,19.3664369 27.4596043,19.3664369 C33.222599,19.3664369 37.1681206,15.1091833 37.1681206,9.6579206 C37.1681206,4.33620892 33.222599,0.182769541 27.4596043,0.182769541 C21.6968987,0.182769541 17.7513771,4.33620892 17.7513771,9.6579206 L17.7513771,9.6579206 Z M32.4695839,9.6579206 C32.4695839,12.8249796 30.3927196,15.2129976 27.4596043,15.2129976 C24.526489,15.2129976 22.4496247,12.8249796 22.4496247,9.6579206 C22.4496247,6.62070179 24.526489,4.33620892 27.4596043,4.33620892 C30.3927196,4.33620892 32.4695839,6.62070179 32.4695839,9.6579206 L32.4695839,9.6579206 Z" id="Fill-2"></path>
            <path d="M49.8878299,10.4106465 L54.4828415,18.0946395 C54.8720728,18.769577 55.3911443,19.0549941 56.1701853,19.0549941 L58.1947087,19.0549941 C59.1293265,19.0549941 59.6223721,18.5619484 59.6223721,17.6273306 L59.6223721,1.92216506 C59.6223721,0.987836395 59.1293265,0.494501606 58.1947087,0.494501606 L56.5073649,0.494501606 C55.5730362,0.494501606 55.0797014,0.987836395 55.0797014,1.92216506 L55.0797014,9.16458581 C55.0797014,10.3328581 55.28733,12.331934 55.28733,12.331934 L55.2355675,12.331934 C55.2355675,12.331934 54.4047639,10.3849098 53.6777747,9.16458581 L49.1090781,1.45543449 C48.7198468,0.779918626 48.2004861,0.494501606 47.3959976,0.494501606 L45.3711851,0.494501606 C44.4365673,0.494501606 43.9435216,0.987836395 43.9435216,1.92216506 L43.9435216,17.6273306 C43.9435216,18.5619484 44.4365673,19.0549941 45.3711851,19.0549941 L47.0585289,19.0549941 C47.9928575,19.0549941 48.4861923,18.5619484 48.4861923,17.6273306 L48.4861923,10.4106465 C48.4861923,9.24266341 48.2785637,7.24387674 48.2785637,7.24387674 L48.3303263,7.24387674 C48.3303263,7.24387674 49.1611299,9.19061168 49.8878299,10.4106465" id="Fill-3"></path>
            <path d="M69.8236449,0.494501606 C68.8890271,0.494501606 68.3962706,0.987836395 68.3962706,1.92216506 L68.3962706,17.6273306 C68.3962706,18.5619484 68.8890271,19.0549941 69.8236449,19.0549941 L74.9894906,19.0549941 C80.8302737,19.0549941 84.5684559,15.5764922 84.5684559,9.73570903 C84.5684559,3.89521504 80.8302737,0.494501606 74.9894906,0.494501606 L69.8236449,0.494501606 L69.8236449,0.494501606 Z M79.86963,9.73570903 C79.86963,13.2922885 77.9489209,15.1609458 74.8078878,15.1609458 L72.9389413,15.1609458 L72.9389413,4.38826066 L74.8078878,4.38826066 C77.8708433,4.38826066 79.86963,6.2054446 79.86963,9.73570903 L79.86963,9.73570903 Z" id="Fill-4"></path>
            <path d="M101.33779,4.38826066 C102.272119,4.38826066 102.765165,3.89521504 102.765165,2.9605972 L102.765165,1.92216506 C102.765165,0.987836395 102.272119,0.494501606 101.33779,0.494501606 L92.8232829,0.494501606 C91.8886651,0.494501606 91.3956195,0.987836395 91.3956195,1.92216506 L91.3956195,17.6273306 C91.3956195,18.5619484 91.8886651,19.0549941 92.8232829,19.0549941 L94.5106267,19.0549941 C95.4446662,19.0549941 95.9382902,18.5619484 95.9382902,17.6273306 L95.9382902,12.1757788 L100.169518,12.1757788 C101.103847,12.1757788 101.597181,11.6827331 101.597181,10.7481153 L101.597181,9.70997234 C101.597181,8.77564367 101.103847,8.2820197 100.169518,8.2820197 L95.9382902,8.2820197 L95.9382902,4.38826066 L101.33779,4.38826066" id="Fill-5"></path>
            <path d="M108.034825,9.6579206 C108.034825,15.1091833 111.980635,19.3664369 117.743341,19.3664369 C123.506336,19.3664369 127.451857,15.1091833 127.451857,9.6579206 C127.451857,4.33620892 123.506336,0.182769541 117.743341,0.182769541 C111.980635,0.182769541 108.034825,4.33620892 108.034825,9.6579206 L108.034825,9.6579206 Z M122.75332,9.6579206 C122.75332,12.8249796 120.676745,15.2129976 117.743341,15.2129976 C114.810226,15.2129976 112.733361,12.8249796 112.733361,9.6579206 C112.733361,6.62070179 114.810226,4.33620892 117.743341,4.33620892 C120.676745,4.33620892 122.75332,6.62070179 122.75332,9.6579206 L122.75332,9.6579206 Z" id="Fill-6"></path>
            <path d="M137.342265,0.494501606 L135.654922,0.494501606 C134.720304,0.494501606 134.227258,0.987836395 134.227258,1.92216506 L134.227258,17.6273306 C134.227258,18.5619484 134.720304,19.0549941 135.654922,19.0549941 L144.922155,19.0549941 C145.856773,19.0549941 146.349818,18.5619484 146.349818,17.6273306 L146.349818,16.5891876 C146.349818,15.6545698 145.856773,15.1609458 144.922155,15.1609458 L138.769929,15.1609458 L138.769929,1.92216506 C138.769929,0.987836395 138.276594,0.494501606 137.342265,0.494501606" id="Fill-7"></path>
            <path d="M153.799579,0.494501606 C152.864961,0.494501606 152.371915,0.987836395 152.371915,1.92216506 L152.371915,17.6273306 C152.371915,18.5619484 152.864961,19.0549941 153.799579,19.0549941 L155.486922,19.0549941 C156.421251,19.0549941 156.914586,18.5619484 156.914586,17.6273306 L156.914586,1.92216506 C156.914586,0.987836395 156.421251,0.494501606 155.486922,0.494501606 L153.799579,0.494501606" id="Fill-8"></path>
            <path d="M163.689408,9.6579206 C163.689408,15.1091833 167.635219,19.3664369 173.397925,19.3664369 C179.16092,19.3664369 183.10673,15.1091833 183.10673,9.6579206 C183.10673,4.33620892 179.16092,0.182769541 173.397925,0.182769541 C167.635219,0.182769541 163.689408,4.33620892 163.689408,9.6579206 L163.689408,9.6579206 Z M178.407904,9.6579206 C178.407904,12.8249796 176.331329,15.2129976 173.397925,15.2129976 C170.464809,15.2129976 168.387945,12.8249796 168.387945,9.6579206 C168.387945,6.62070179 170.464809,4.33620892 173.397925,4.33620892 C176.331329,4.33620892 178.407904,6.62070179 178.407904,9.6579206 L178.407904,9.6579206 Z" id="Fill-9"></path>
</svg>

<?xml version="1.0" encoding="utf-8"?><svg width="184" height="20" viewBox="0 0 184 20" xmlns="http://www.w3.org/2000/svg"><path d="M10.535 4.388c.934 0 1.427-.493 1.427-1.427V1.923c0-.934-.493-1.427-1.427-1.427H2.02C1.086.495.593.988.593 1.922v15.705c0 .935.493 1.428 1.427 1.428h1.688c.934 0 1.427-.493 1.427-1.428v-5.45h4.23c.936 0 1.43-.494 1.43-1.43V9.71c0-.934-.494-1.428-1.43-1.428h-4.23V4.388h5.4M17.75 9.658c0 5.45 3.947 9.708 9.71 9.708 5.763 0 9.708-4.257 9.708-9.708 0-5.322-3.945-9.475-9.708-9.475s-9.71 4.153-9.71 9.475zm14.72 0c0 3.167-2.077 5.555-5.01 5.555-2.934 0-5.01-2.388-5.01-5.555 0-3.037 2.076-5.322 5.01-5.322 2.933 0 5.01 2.285 5.01 5.322zM49.888 10.41l4.595 7.685c.39.675.908.96 1.687.96h2.025c.934 0 1.427-.493 1.427-1.428V1.922c0-.934-.493-1.427-1.427-1.427h-1.688c-.934 0-1.427.493-1.427 1.427v7.243c0 1.168.207 3.167.207 3.167h-.05s-.832-1.947-1.56-3.167l-4.568-7.71c-.39-.675-.91-.96-1.714-.96H45.37c-.933 0-1.426.493-1.426 1.427v15.705c0 .935.493 1.428 1.427 1.428h1.69c.933 0 1.426-.493 1.426-1.428V10.41c0-1.167-.207-3.166-.207-3.166h.05s.83 1.947 1.558 3.167M69.824.495c-.935 0-1.428.493-1.428 1.427v15.705c0 .935.493 1.428 1.428 1.428h5.165c5.84 0 9.578-3.48 9.578-9.32S80.83.496 74.988.496h-5.164zm10.046 9.24c0 3.557-1.92 5.426-5.062 5.426h-1.87V4.39h1.87c3.063 0 5.062 1.817 5.062 5.348zM101.338 4.388c.934 0 1.427-.493 1.427-1.427V1.923c0-.934-.493-1.427-1.427-1.427h-8.515c-.934 0-1.427.493-1.427 1.427v15.705c0 .935.493 1.428 1.427 1.428h1.688c.935 0 1.428-.493 1.428-1.428v-5.45h4.232c.934 0 1.427-.494 1.427-1.43V9.71c0-.934-.493-1.428-1.427-1.428h-4.232V4.388h5.4M108.035 9.658c0 5.45 3.946 9.708 9.708 9.708 5.763 0 9.71-4.257 9.71-9.708 0-5.322-3.947-9.475-9.71-9.475-5.762 0-9.708 4.153-9.708 9.475zm14.718 0c0 3.167-2.076 5.555-5.01 5.555-2.933 0-5.01-2.388-5.01-5.555 0-3.037 2.077-5.322 5.01-5.322 2.934 0 5.01 2.285 5.01 5.322zM137.342.495h-1.687c-.935 0-1.428.493-1.428 1.427v15.705c0 .935.493 1.428 1.428 1.428h9.267c.935 0 1.428-.493 1.428-1.428V16.59c0-.935-.493-1.43-1.428-1.43h-6.152V1.923c0-.934-.493-1.427-1.428-1.427M153.8.495c-.935 0-1.428.493-1.428 1.427v15.705c0 .935.493 1.428 1.428 1.428h1.687c.934 0 1.428-.493 1.428-1.428V1.922c0-.934-.494-1.427-1.428-1.427H153.8M163.69 9.658c0 5.45 3.945 9.708 9.708 9.708s9.71-4.257 9.71-9.708c0-5.322-3.947-9.475-9.71-9.475-5.763 0-9.71 4.153-9.71 9.475zm14.718 0c0 3.167-2.077 5.555-5.01 5.555s-5.01-2.388-5.01-5.555c0-3.037 2.077-5.322 5.01-5.322s5.01 2.285 5.01 5.322z"/></svg>
